X:0856
M:3/4
L:1/8
Q:3/4=50
K:D
a4          fa      | g4           e>c|  d>f`e>g`f>a|   a2  g2  f2 |\
e3  f/g/    a/g/f/e/| d2  c2       d2 |  e>f`g>e`fd |  (fe)(dc)(BA)|
a4          f>a     | g4           e>c|  d>f`e>g`f>a|   a2  g2  f2 |\
f2 f2       e2      |(ed) d2     (3def|  g2  g2  f2 |  (fe) e4     |\
g2 f2       b2      |a2c2          d2 |  e>f`ge``fd |   fe``dc``BA |
a4          f>a     |g4            e>c|  d>e`e>g`f>a|   a2  g2  f2 |\

